svgs/regular/code-commit.svg

<svg xmlns="http://www.w3.org/2000/svg" viewBox="0 0 640 512"><!--! Font Awesome Pro 6.5.1 by @fontawesome - https://fontawesome.com License - https://fontawesome.com/license (Commercial License) Copyright 2023 Fonticons, Inc. --><path d="M320 368a112 112 0 1 0 0-224 112 112 0 1 0 0 224zm158.2-88c-11.6 77-78 136-158.2 136s-146.6-59-158.2-136H24c-13.3 0-24-10.7-24-24s10.7-24 24-24H161.8c11.6-77 78-136 158.2-136s146.6 59 158.2 136H616c13.3 0 24 10.7 24 24s-10.7 24-24 24H478.2z"/></svg>

<svg xmlns="http://www.w3.org/2000/svg" viewBox="0 0 640 512"><!--! Font Awesome Pro 6.1.1 by @fontawesome - https://fontawesome.com License - https://fontawesome.com/license (Commercial License) Copyright 2022 Fonticons, Inc. --><path d="M478.2 280C466.6 356.1 400.2 416 320 416C239.8 416 173.4 356.1 161.8 280H24C10.75 280 0 269.3 0 256C0 242.7 10.75 232 24 232H161.8C173.4 155 239.8 96 320 96C400.2 96 466.6 155 478.2 232H616C629.3 232 640 242.7 640 256C640 269.3 629.3 280 616 280H478.2zM320 368C381.9 368 432 317.9 432 256C432 194.1 381.9 144 320 144C258.1 144 208 194.1 208 256C208 317.9 258.1 368 320 368z"/></svg>
